X:10984
T:Miss Susan Cooper
R:Reel
S:
H:
N:
D:Galway session. Another version on Patrick Ourceau & O hAllmhurain.
Z:Adrian Scahill
M:4/4
L:1/8
K:D
defd BcdB|BAFA DAFB|ABde fg^ga|gAfA egfe|\
defd BcdB|BAFA DAFA|ABde fg^ga|gece d4:||\
Bcde fBB2|def^g a2gf|eAA2 eAce|gAfA egfe|\
defd BcdB|BAFA DAFB|ABde fg^ga|gece d4:||
